packages/icons/general/Checkbox.svg

<svg width="18" height="18" viewBox="0 0 18 18" xmlns="http://www.w3.org/2000/svg">
<g>
        <path
            d="M0 4C0 1.79086 1.79086 0 4 0H14C16.2091 0 18 1.79086 18 4V14C18 16.2091 16.2091 18 14 18H4C1.79086 18 0 16.2091 0 14V4Z"
            fill="#1C68F3"
        />
        <path
            fill-rule="evenodd"
            clip-rule="evenodd"
            d="M14.0303 5.46967C14.3232 5.76256 14.3232 6.23744 14.0303 6.53033L8.03033 12.5303C7.73744 12.8232 7.26256 12.8232 6.96967 12.5303L3.96967 9.53033C3.67678 9.23744 3.67678 8.76256 3.96967 8.46967C4.26256 8.17678 4.73744 8.17678 5.03033 8.46967L7.5 10.9393L12.9697 5.46967C13.2626 5.17678 13.7374 5.17678 14.0303 5.46967Z"
            fill="#FCFCFD"
        />
    </g>
</svg>

<svg xmlns="http://www.w3.org/2000/svg" width="18" height="18">
    <path fill="#1C68F3" d="M0 4a4 4 0 0 1 4-4h10a4 4 0 0 1 4 4v10a4 4 0 0 1-4 4H4a4 4 0 0 1-4-4V4Z"/>
    <path fill="#FCFCFD" fill-rule="evenodd" d="M14.03 5.47a.75.75 0 0 1 0 1.06l-6 6a.75.75 0 0 1-1.06 0l-3-3a.75.75 0 0 1 1.06-1.06l2.47 2.47 5.47-5.47a.75.75 0 0 1 1.06 0Z" clip-rule="evenodd"/>
</svg>
